X:147
T: John[n]y's Grey Breeks
N: O'Farrell's Pocket Companion v.2 (Sky ed. p.77)
N: "Scotch"
M: C
R: reel
L: 1/8
Q: 320
K: D
de|f2f2 gfed|B6 d>A|F2 EF D3E|F2A2A2 de|
f2 ef aged|B4 d4|F2 ED E2 F2|d2 B2 B2 :|
zd|A3B d3e|f4 e2d2|e3f a2 ba|f2 e4 fg|
b3c'b2 af|a2a2 bafe|d2 b2 afe>f|d2B2B2 :|
